X: 27
P: No. XXVII.
M: C
L: 1/8
K: F
V: 1
(c>d)cA (d>e)fd | (c>A)G>A F2zc |\
(f>e)fg fedc | (dc)fA c2zc |\
(f>e)fg fedc | dcBA Hd2ze |\
f>edc d>eHf> d | (c<A) (TG>A) F3 |]
V: 2 clef=bass middle=d
z |\
f2a2 b2B2 | c2c2 Fc fe |\
d2g2 c'2ba | baf2 zcc'b |
a2zb c'2za | bagf HB2z2 | a2za bgHdz/ B/ | c2C2 F3 |]

